X: 11292
Q: "Slow and distinct."
M: C|
L: 1/8
K: F
(C/D/E) |\
(def).c (ABc)A | (dc).B.A {A}G2 FD |\
|: (c/d/e) |\
(fef).g (fg).a.f | (gf).g.a (ag).f.d |\
(cd).f.g (fg).a.g | (fg).f.c (AB).c.A |\
(de).f.c (AB).c.A | (fd).c.A {A}G2FD |\


